dist/assets/img/questions/8/answers/1.svg

<svg width="502" height="286" viewBox="0 0 502 286" fill="none" xmlns="http://www.w3.org/2000/svg">
<g filter="url(#filter0_di_1495_83552)">
<path fill-rule="evenodd" clip-rule="evenodd" d="M77.6345 28C73.4966 28 70.0416 31.1554 69.6673 35.2763L68.2027 51.4009C67.9323 54.3775 66.0117 56.9235 63.32 58.2226C53.8086 62.813 43.1801 70.3354 40.004 80.5245C39.9812 80.5976 40.0611 80.6593 40.1262 80.6192C43.5173 78.5279 49.3362 74.9395 56.4937 72.2546C61.4304 70.4027 66.0934 74.623 65.6165 79.874L52.2279 227.276C51.8024 231.961 55.4911 236 60.1951 236H436.152C440.289 236 443.744 232.845 444.119 228.724L461.558 36.7237C461.984 32.0389 458.295 28 453.591 28H77.6345Z" fill="#FFF0CB"/>
</g>
<defs>
<filter id="filter0_di_1495_83552" x="0" y="0" width="501.592" height="288" filterUnits="userSpaceOnUse" color-interpolation-filters="sRGB">
<feFlood flood-opacity="0" result="BackgroundImageFix"/>
<feColorMatrix in="SourceAlpha" type="matrix" values="0 0 0 0 0 0 0 0 0 0 0 0 0 0 0 0 0 0 127 0" result="hardAlpha"/>
<feOffset dy="12"/>
<feGaussianBlur stdDeviation="20"/>
<feComposite in2="hardAlpha" operator="out"/>
<feColorMatrix type="matrix" values="0 0 0 0 1 0 0 0 0 1 0 0 0 0 1 0 0 0 1 0"/>
<feBlend mode="normal" in2="BackgroundImageFix" result="effect1_dropShadow_1495_83552"/>
<feBlend mode="normal" in="SourceGraphic" in2="effect1_dropShadow_1495_83552" result="shape"/>
<feColorMatrix in="SourceAlpha" type="matrix" values="0 0 0 0 0 0 0 0 0 0 0 0 0 0 0 0 0 0 127 0" result="hardAlpha"/>
<feOffset dy="-4"/>
<feGaussianBlur stdDeviation="4"/>
<feComposite in2="hardAlpha" operator="arithmetic" k2="-1" k3="1"/>
<feColorMatrix type="matrix" values="0 0 0 0 0.883659 0 0 0 0 0.635314 0 0 0 0 0.0558422 0 0 0 0.4 0"/>
<feBlend mode="normal" in2="shape" result="effect2_innerShadow_1495_83552"/>
</filter>
</defs>
</svg>

<svg width="502" height="286" viewBox="0 0 502 286" fill="none" xmlns="http://www.w3.org/2000/svg"><g filter="url(#filter0_di_1495_83552)"><path fill-rule="evenodd" clip-rule="evenodd" d="M77.635 28a8 8 0 00-7.968 7.276l-1.464 16.125c-.27 2.976-2.191 5.522-4.883 6.822-9.511 4.59-20.14 12.112-23.316 22.302a.082.082 0 00.122.094c3.391-2.091 9.21-5.68 16.368-8.364 4.936-1.852 9.6 2.368 9.123 7.619l-13.39 147.402c-.425 4.685 3.264 8.724 7.968 8.724h375.957a8 8 0 007.967-7.276l17.439-192c.426-4.685-3.263-8.724-7.967-8.724H77.634z" fill="#FFF0CB"/></g><defs><filter id="filter0_di_1495_83552" x="0" y="0" width="501.592" height="288" filterUnits="userSpaceOnUse" color-interpolation-filters="sRGB"><feFlood flood-opacity="0" result="BackgroundImageFix"/><feColorMatrix in="SourceAlpha" values="0 0 0 0 0 0 0 0 0 0 0 0 0 0 0 0 0 0 127 0" result="hardAlpha"/><feOffset dy="12"/><feGaussianBlur stdDeviation="20"/><feComposite in2="hardAlpha" operator="out"/><feColorMatrix values="0 0 0 0 1 0 0 0 0 1 0 0 0 0 1 0 0 0 1 0"/><feBlend in2="BackgroundImageFix" result="effect1_dropShadow_1495_83552"/><feBlend in="SourceGraphic" in2="effect1_dropShadow_1495_83552" result="shape"/><feColorMatrix in="SourceAlpha" values="0 0 0 0 0 0 0 0 0 0 0 0 0 0 0 0 0 0 127 0" result="hardAlpha"/><feOffset dy="-4"/><feGaussianBlur stdDeviation="4"/><feComposite in2="hardAlpha" operator="arithmetic" k2="-1" k3="1"/><feColorMatrix values="0 0 0 0 0.883659 0 0 0 0 0.635314 0 0 0 0 0.0558422 0 0 0 0.4 0"/><feBlend in2="shape" result="effect2_innerShadow_1495_83552"/></filter></defs></svg>
